X: 3
T: Mia yrmana fremosa
F:https://en.wikipedia.org/wiki/Martin_Codax
F:https://es.wikisource.org/wiki/Archivo:Martim_Codax_Cantigas_de_Amigo.jpg
Z:Ali Corbin <ali.corbin:gmail.com>
N: 
M: 4/4
L: 1/4
Q: 1/4=160
K: F Ionian
V:1
%Staff 1
%%MIDI program 74
%
  F2 F G |A2  A  A |B2 A2|(G/F/) E  F > F|(AGA2)|(GF) z2|
w:Mi-a yr-ma-na fre-mo-sa  tre-* i-des co- mi-** go*
  F2 F G| A2  A A |B2 A2|(G/F/) E   F > G|A4|(AG) z2|
w:a la y-gre-ja de Vi-g'u é *   o  mar sa-li- do*   
M:3/4
  F2 (F/E/)|(DFE)|(DC2)|(DF2)|A2 (G/F/)|F3||
w:E   mi-*   ra-**  re-* mos* las  on-* das.
%
W:Mia yrmana fremosa, treides comigo. 	% My beautiful sister, come with.me
W:a la ygreja de Vig', u é o mar salido % to the church of Vigo where the sea is departed 
W:E miraremos las ondas.		% and we.will.watch the waves.
W:
W:Mia yrmana fremosa, treides de grado. % My beautiful sister come willingly
W:a la ygreja de Vig', u é o mar levado.% to the church of Vigo where the sea is arisen 
W:E miraremos las ondas. 		% and we.will.watch the waves.
W:
W:A la ygreja de Vig', u é o mar levado.% To the church of Vigo where the sea is arisen 
W:e verra y, mia madre, o meu amado. 	% and I.might.see there, my mother, my own beloved.
W:E miraremos las ondas. 		% and we.will.watch the waves.
W:
W:A la ygreja de Vig', u é o mar salido.% To the church of Vigo where the sea is departed
W:e verra y, mia madre, o meu amigo. 	% and I.might.see there, my mother, my own friend 
W:E miraremos las ondas. 		% and we.will.watch the waves.
W:


